Sources/FrostedUI/Resources/Icons.xcassets/eyeSlashed24.imageset/eye-slashed-24.svg

<svg width="24" height="24" viewBox="0 0 24 24" fill="none" xmlns="http://www.w3.org/2000/svg" data-fui-icon="true">
  <path
    d="M19.7196 3.21973C20.0124 2.92705 20.4873 2.92709 20.7802 3.21973C21.0728 3.51258 21.0728 3.98742 20.7802 4.28027L16.0253 9.03418C16.6376 9.86392 16.9999 10.8897 16.9999 12C16.9999 14.7613 14.7612 16.9998 11.9999 17C10.8897 16.9999 9.86368 16.6376 9.03406 16.0254L4.28015 20.7803C3.98729 21.0729 3.51244 21.0729 3.2196 20.7803C2.92698 20.4874 2.92698 20.0126 3.2196 19.7197L7.97351 14.9648C7.36165 14.1353 6.99988 13.1099 6.99988 12C6.99988 9.23871 9.23864 7.00022 11.9999 7C13.1096 7.00007 14.1352 7.36184 14.9647 7.97363L19.7196 3.21973ZM19.41 7.06445C19.7049 6.77373 20.1798 6.7775 20.4706 7.07227C22.3761 9.00522 23.5559 11.0111 23.8417 11.5205C24.0101 11.8207 24.01 12.1793 23.8417 12.4795C23.5486 13.002 22.3127 15.1037 20.3153 17.084C18.3269 19.0553 15.4878 20.9999 11.9999 21C10.4882 20.9999 9.09543 20.6337 7.8446 20.0596C7.46844 19.8867 7.30284 19.4408 7.47546 19.0645C7.64827 18.6883 8.09427 18.5238 8.47058 18.6963C9.55639 19.1946 10.7363 19.4999 11.9999 19.5C14.914 19.4999 17.3923 17.8688 19.2587 16.0186C20.8713 14.4197 21.9553 12.7257 22.3837 12.0029C21.97 11.3044 20.9392 9.68402 19.4022 8.125C19.1119 7.83007 19.1154 7.35515 19.41 7.06445ZM11.9999 3C13.5113 3.00005 14.9035 3.3665 16.1542 3.94043C16.5306 4.11322 16.6961 4.55909 16.5233 4.93555C16.3504 5.31159 15.9054 5.47631 15.5292 5.30371C14.4433 4.80537 13.2635 4.50005 11.9999 4.5C9.08573 4.50015 6.60644 6.13115 4.74011 7.98145C3.12762 9.58023 2.04247 11.2734 1.61414 11.9961C2.02722 12.6937 3.05864 14.3149 4.59656 15.875C4.88735 16.17 4.88372 16.6448 4.58875 16.9355C4.29374 17.2259 3.81886 17.2226 3.5282 16.9277C1.62264 14.9947 0.442669 12.9886 0.157104 12.4795C-0.0110326 12.1795 -0.0110313 11.8205 0.157104 11.5205L0.311401 11.2539C0.77159 10.4746 1.93661 8.64891 3.68445 6.91602C5.67288 4.94467 8.51194 3.00015 11.9999 3ZM10.1122 14.9473C10.6567 15.2967 11.3048 15.4999 11.9999 15.5C13.9327 15.4998 15.4999 13.9329 15.4999 12C15.4999 11.3049 15.2956 10.6579 14.9462 10.1133L10.1122 14.9473ZM11.9999 8.5C10.0671 8.50022 8.49988 10.0671 8.49988 12C8.49988 12.6947 8.70358 13.3413 9.05261 13.8857L13.8856 9.05273C13.3413 8.70376 12.6944 8.50006 11.9999 8.5Z"
    fill="currentColor"
  />
</svg>

<svg xmlns="http://www.w3.org/2000/svg" width="24" height="24" fill="none" data-fui-icon="true" viewBox="0 0 24 24"><path fill="currentColor" d="M19.72 3.22a.75.75 0 0 1 1.06 1.06l-4.755 4.754a5 5 0 0 1-6.991 6.991L4.28 20.78a.75.75 0 0 1-1.06-1.06l4.754-4.755a5 5 0 0 1 6.991-6.991zm-.31 3.844a.75.75 0 0 1 1.06.008 22.2 22.2 0 0 1 3.372 4.449c.168.3.168.658 0 .958a22.2 22.2 0 0 1-3.527 4.605C18.327 19.055 15.488 21 12 21c-1.512 0-2.905-.366-4.155-.94a.751.751 0 0 1 .626-1.363c1.085.498 2.265.803 3.529.803 2.914 0 5.392-1.631 7.259-3.481a21 21 0 0 0 3.125-4.016 21 21 0 0 0-2.982-3.878.75.75 0 0 1 .008-1.06M12 3c1.511 0 2.903.366 4.154.94a.75.75 0 0 1-.625 1.364C14.443 4.805 13.264 4.5 12 4.5c-2.913 0-5.393 1.631-7.259 3.481a21 21 0 0 0-3.126 4.015 21 21 0 0 0 2.983 3.879.75.75 0 1 1-1.069 1.053 22.2 22.2 0 0 1-3.37-4.449.98.98 0 0 1 0-.958l.153-.267c.46-.78 1.626-2.605 3.373-4.338C5.673 4.945 8.512 3 12 3m-1.888 11.947a3.5 3.5 0 0 0 4.834-4.834zM12 8.5a3.5 3.5 0 0 0-2.947 5.386l4.833-4.833A3.5 3.5 0 0 0 12 8.5"/></svg>
